icons/svg/icons8/citrus.svg

<svg width="26" height="26" viewBox="0 0 26 26" fill="none" xmlns="http://www.w3.org/2000/svg">
<path d="M10 25C14.9706 25 19 20.0751 19 14C19 7.92487 14.9706 3 10 3C5.02944 3 1 7.92487 1 14C1 20.0751 5.02944 25 10 25Z" stroke="#333333" stroke-width="2" stroke-miterlimit="10" stroke-linecap="round" stroke-linejoin="round"/>
<path d="M24.53 12.065C23.912 11.705 22.812 2.04599 10.375 2.04599C14.125 3.54599 18.813 7.43999 18.813 13.999C18.813 20.558 15.188 23.718 10.25 25.968C23.816 25.968 24.037 16.259 24.649 15.799C25.283 15.323 26 14.523 26 13.898C26 13.273 25.482 12.621 24.53 12.065Z" fill="#333333"/>
<path d="M9.97012 12.174L12.3951 6.79099C10.7391 5.96599 8.92612 6.05799 7.37012 6.91699L9.97012 12.174Z" fill="#333333"/>
<path d="M11.2793 13.054L16.3003 12.931C16.0643 10.868 15.1603 8.947 13.7023 7.677L11.2793 13.054Z" fill="#333333"/>
<path d="M13.9101 20.142C14.5751 19.51 15.1451 18.713 15.5771 17.758C16.0081 16.797 16.2571 15.78 16.3371 14.756L11.3071 14.88L13.9101 20.142Z" fill="#333333"/>
<path d="M10.03 15.826L7.604 21.205C9.261 22.034 11.073 21.934 12.626 21.083L10.03 15.826Z" fill="#333333"/>
<path d="M6.09016 7.85599C5.42416 8.48299 4.85216 9.28299 4.42116 10.244C3.98816 11.202 3.74216 12.218 3.66016 13.243L8.68916 13.117L6.09016 7.85599Z" fill="#333333"/>
<path d="M8.72024 14.943L3.69824 15.069C3.93424 17.13 4.83924 19.053 6.29524 20.324L8.72024 14.943Z" fill="#333333"/>
</svg>

<?xml version="1.0" encoding="utf-8"?>
<!-- Generator: Adobe Illustrator 15.0.0, SVG Export Plug-In . SVG Version: 6.00 Build 0)  -->
<!DOCTYPE svg PUBLIC "-//W3C//DTD SVG 1.1//EN" "http://www.w3.org/Graphics/SVG/1.1/DTD/svg11.dtd">
<svg version="1.1" id="Layer_1" xmlns="http://www.w3.org/2000/svg" xmlns:xlink="http://www.w3.org/1999/xlink" x="0px" y="0px"
	 width="26px" height="26px" viewBox="0 0 26 26" enable-background="new 0 0 26 26" xml:space="preserve">
<rect fill="none" width="26" height="26"/>
<ellipse fill="none" stroke="#333333" stroke-width="2" stroke-linecap="round" stroke-linejoin="round" stroke-miterlimit="10" cx="10" cy="14" rx="9" ry="11"/>
<path fill="#333333" d="M24.53,12.065c-0.618-0.36-1.718-10.019-14.155-10.019c3.75,1.5,8.438,5.394,8.438,11.953
	s-3.625,9.719-8.563,11.969c13.566,0,13.787-9.709,14.399-10.169C25.283,15.323,26,14.523,26,13.898S25.482,12.621,24.53,12.065z"/>
<g>
	<path fill="#333333" d="M9.97,12.174l2.425-5.383c-1.656-0.825-3.469-0.733-5.025,0.126L9.97,12.174z"/>
	<path fill="#333333" d="M11.279,13.054l5.021-0.123c-0.236-2.063-1.14-3.984-2.598-5.254L11.279,13.054z"/>
	<path fill="#333333" d="M13.91,20.142c0.665-0.632,1.235-1.429,1.667-2.384c0.431-0.961,0.68-1.978,0.76-3.002l-5.03,0.124
		L13.91,20.142z"/>
	<path fill="#333333" d="M10.03,15.826l-2.426,5.379c1.657,0.829,3.469,0.729,5.022-0.122L10.03,15.826z"/>
	<path fill="#333333" d="M6.09,7.856c-0.666,0.627-1.238,1.427-1.669,2.388c-0.433,0.958-0.679,1.974-0.761,2.999l5.029-0.126
		L6.09,7.856z"/>
	<path fill="#333333" d="M8.72,14.943l-5.022,0.126c0.236,2.061,1.141,3.984,2.597,5.255L8.72,14.943z"/>
</g>
</svg>
